ix/box-2_bulk.svg

<svg viewBox="0 0 24 24" fill="none" xmlns="http://www.w3.org/2000/svg" height="1em" width="1em">
  <path opacity="0.4" d="M5.32914 19.42C5.21914 19.42 5.09914 19.39 4.99914 19.34L2.77914 18.23C2.52914 18.1 2.36914 17.84 2.36914 17.56V14.78C2.36914 14.37 2.70914 14.03 3.11914 14.03C3.52914 14.03 3.86914 14.37 3.86914 14.78V17.09L5.67914 17.99C6.04914 18.18 6.19913 18.63 6.01913 19C5.86913 19.26 5.60914 19.42 5.32914 19.42Z" fill="#292D32"/>
  <path d="M11.9995 22.75C11.9395 22.75 11.8795 22.74 11.8295 22.73C11.7695 22.72 11.7095 22.69 11.6495 22.66L9.43948 21.56C9.06948 21.37 8.91947 20.92 9.09947 20.55C9.28947 20.18 9.73947 20.03 10.1095 20.21L11.2495 20.78V19.22C11.2495 18.81 11.5895 18.47 11.9995 18.47C12.4095 18.47 12.7495 18.81 12.7495 19.22V20.78L13.8895 20.21C14.2595 20.03 14.7095 20.18 14.8995 20.55C15.0895 20.92 14.9395 21.37 14.5595 21.56L12.3495 22.66C12.2895 22.69 12.2295 22.71 12.1695 22.73C12.1095 22.74 12.0595 22.75 11.9995 22.75Z" fill="#292D32"/>
  <path opacity="0.4" d="M18.6702 19.42C18.4002 19.42 18.1302 19.27 18.0002 19.01C17.8102 18.64 17.9602 18.19 18.3402 18L20.1502 17.1001V14.79C20.1502 14.38 20.4902 14.04 20.9002 14.04C21.3102 14.04 21.6502 14.38 21.6502 14.79V17.5701C21.6502 17.8501 21.4902 18.1101 21.2402 18.2401L19.0202 19.3501C18.8902 19.3901 18.7802 19.42 18.6702 19.42Z" fill="#292D32"/>
  <path d="M11.9995 14.42C11.5895 14.42 11.2495 14.08 11.2495 13.67V11.36L9.43948 10.4601C9.06948 10.2701 8.91947 9.82004 9.09947 9.45004C9.28947 9.08004 9.73947 8.93005 10.1095 9.11005L11.9995 10.05L13.8895 9.11005C14.2595 8.93005 14.7095 9.07004 14.8995 9.45004C15.0895 9.82004 14.9395 10.2701 14.5595 10.4601L12.7495 11.36V13.67C12.7495 14.08 12.4095 14.42 11.9995 14.42Z" fill="#292D32"/>
  <path opacity="0.4" d="M3.10938 9.96988C2.69938 9.96988 2.35938 9.62988 2.35938 9.21988V6.45988V6.44987C2.35938 6.38987 2.36937 6.32987 2.37937 6.27987C2.39937 6.19987 2.42938 6.12987 2.46938 6.05987C2.49938 6.00987 2.52937 5.96987 2.56937 5.92987C2.60937 5.88987 2.65937 5.84988 2.70937 5.81988C2.72937 5.80988 2.75937 5.78987 2.77937 5.77987L4.98937 4.67987C5.35937 4.49987 5.80937 4.63988 5.99937 5.01988C6.18937 5.38988 6.03938 5.83987 5.65938 6.02987L4.77937 6.46988L5.65938 6.90988C6.02938 7.09988 6.17937 7.54987 5.99937 7.91987C5.81937 8.28987 5.35937 8.43987 4.98937 8.25987L3.84937 7.68988V9.24987C3.85937 9.63987 3.52937 9.96988 3.10938 9.96988Z" fill="#292D32"/>
  <path d="M14.2198 3.86004C14.1098 3.86004 13.9898 3.83004 13.8898 3.78004L11.9998 2.84004L10.1098 3.78004C9.73979 3.97004 9.28979 3.82004 9.09979 3.44004C8.90979 3.07004 9.05979 2.62003 9.43979 2.43003L11.6598 1.32005C11.8698 1.21005 12.1198 1.21005 12.3298 1.32005L14.5498 2.43003C14.9198 2.62003 15.0698 3.07004 14.8898 3.44004C14.7598 3.71004 14.4998 3.86004 14.2198 3.86004Z" fill="#292D32"/>
  <path opacity="0.4" d="M20.8904 9.97002C20.4804 9.97002 20.1404 9.63001 20.1404 9.22002V7.66002L19.0004 8.23001C18.6304 8.42001 18.1804 8.27001 17.9904 7.89001C17.8004 7.52001 17.9504 7.07002 18.3304 6.88002L19.2104 6.44002L18.3304 6.00001C17.9604 5.81001 17.8104 5.36002 17.9904 4.99002C18.1704 4.62002 18.6304 4.47001 19.0004 4.65001L21.2104 5.75001C21.2304 5.76001 21.2604 5.77001 21.2804 5.79001C21.3404 5.82001 21.3904 5.87001 21.4404 5.92001C21.4704 5.96001 21.5004 6.00001 21.5304 6.04001C21.5704 6.11001 21.6004 6.18001 21.6204 6.26001C21.6304 6.32001 21.6404 6.38001 21.6404 6.43001V6.44002V9.20001C21.6404 9.64001 21.3004 9.97002 20.8904 9.97002Z" fill="#292D32"/>
</svg>

<svg viewBox="0 0 24 24" fill="none" xmlns="http://www.w3.org/2000/svg" height="1em" width="1em">
  <path opacity=".4" d="M5.33 19.42c-.11 0-.23-.03-.33-.08l-2.22-1.11a.76.76 0 0 1-.41-.67v-2.78c0-.41.34-.75.75-.75s.75.34.75.75v2.31l1.81.9c.37.19.52.64.34 1.01-.15.26-.41.42-.69.42Z" fill="#292D32"/>
  <path d="M12 22.75a.88.88 0 0 1-.17-.02.67.67 0 0 1-.18-.07l-2.21-1.1a.763.763 0 0 1-.34-1.01c.19-.37.64-.52 1.01-.34l1.14.57v-1.56c0-.41.34-.75.75-.75s.75.34.75.75v1.56l1.14-.57c.37-.18.82-.03 1.01.34.19.37.04.82-.34 1.01l-2.21 1.1c-.06.03-.12.05-.18.07-.06.01-.11.02-.17.02Z" fill="#292D32"/>
  <path opacity=".4" d="M18.67 19.42c-.27 0-.54-.15-.67-.41a.745.745 0 0 1 .34-1.01l1.81-.9v-2.31c0-.41.34-.75.75-.75s.75.34.75.75v2.78c0 .28-.16.54-.41.67l-2.22 1.11c-.13.04-.24.07-.35.07Z" fill="#292D32"/>
  <path d="M12 14.42c-.41 0-.75-.34-.75-.75v-2.31l-1.81-.9a.763.763 0 0 1-.34-1.01c.19-.37.64-.52 1.01-.34l1.89.94 1.89-.94c.37-.18.82-.04 1.01.34.19.37.04.82-.34 1.01l-1.81.9v2.31c0 .41-.34.75-.75.75Z" fill="#292D32"/>
  <path opacity=".4" d="M3.11 9.97c-.41 0-.75-.34-.75-.75V6.45c0-.06.01-.12.02-.17.02-.08.05-.15.09-.22.03-.05.06-.09.1-.13.04-.04.09-.08.14-.11.02-.01.05-.03.07-.04l2.21-1.1c.37-.18.82-.04 1.01.34.19.37.04.82-.34 1.01l-.88.44.88.44c.37.19.52.64.34 1.01a.76.76 0 0 1-1.01.34l-1.14-.57v1.56c.01.39-.32.72-.74.72Z" fill="#292D32"/>
  <path d="M14.22 3.86c-.11 0-.23-.03-.33-.08L12 2.84l-1.89.94c-.37.19-.82.04-1.01-.34a.745.745 0 0 1 .34-1.01l2.22-1.11c.21-.11.46-.11.67 0l2.22 1.11c.37.19.52.64.34 1.01-.13.27-.39.42-.67.42Z" fill="#292D32"/>
  <path opacity=".4" d="M20.89 9.97c-.41 0-.75-.34-.75-.75V7.66L19 8.23c-.37.19-.82.04-1.01-.34a.745.745 0 0 1 .34-1.01l.88-.44-.88-.44a.763.763 0 0 1-.34-1.01.76.76 0 0 1 1.01-.34l2.21 1.1c.02.01.05.02.07.04.06.03.11.08.16.13l.09.12c.04.07.07.14.09.22.01.06.02.12.02.17V9.2c0 .44-.34.77-.75.77Z" fill="#292D32"/>
</svg>
